Dominus_Dark_Funeral/22/mimes/application-certificate.svg

<svg xmlns="http://www.w3.org/2000/svg" viewBox="0 0 24 24"><defs><linearGradient id="a"><stop offset="0"/><stop offset="1" stop-opacity="0"/></linearGradient></defs><path style="marker:none" d="M11.994.455l-1.246 2.153-1.984-1.5-.326 2.48-2.42-.653.654 2.419-2.467.314 1.511 1.984-2.152 1.246 2.152 1.245-1.511 1.984 2.104.278-4.596 7.971 3.93-.484 1.561 3.653 4.185-7.257.605 1.052.605-1.052 4.185 7.257 1.56-3.64 3.943.471-4.596-7.97 2.092-.279-1.512-1.984 2.153-1.245-2.153-1.246 1.512-1.984-2.467-.326.641-2.407-2.42.653-.314-2.48L13.24 2.62z" overflow="visible" color="#000" fill="#e6e6e6"/></svg>

<?xml version="1.0" encoding="UTF-8" standalone="no"?>
<svg
   xmlns:dc="http://purl.org/dc/elements/1.1/"
   xmlns:cc="http://creativecommons.org/ns#"
   xmlns:rdf="http://www.w3.org/1999/02/22-rdf-syntax-ns#"
   xmlns:svg="http://www.w3.org/2000/svg"
   xmlns="http://www.w3.org/2000/svg"
   xmlns:sodipodi="http://sodipodi.sourceforge.net/DTD/sodipodi-0.dtd"
   xmlns:inkscape="http://www.inkscape.org/namespaces/inkscape"
   viewBox="0 0 24 24"
   version="1.1"
   id="svg11"
   sodipodi:docname="application-certificate.svg"
   inkscape:version="0.92.4 (5da689c313, 2019-01-14)">
  <metadata
     id="metadata15">
    <rdf:RDF>
      <cc:Work
         rdf:about="">
        <dc:format>image/svg+xml</dc:format>
        <dc:type
           rdf:resource="http://purl.org/dc/dcmitype/StillImage" />
        <dc:title></dc:title>
      </cc:Work>
    </rdf:RDF>
  </metadata>
  <sodipodi:namedview
     pagecolor="#ffffff"
     bordercolor="#666666"
     borderopacity="1"
     objecttolerance="10"
     gridtolerance="10"
     guidetolerance="10"
     inkscape:pageopacity="0"
     inkscape:pageshadow="2"
     inkscape:window-width="1112"
     inkscape:window-height="480"
     id="namedview13"
     showgrid="false"
     inkscape:zoom="9.8333333"
     inkscape:cx="1.0677966"
     inkscape:cy="12"
     inkscape:window-x="0"
     inkscape:window-y="25"
     inkscape:window-maximized="0"
     inkscape:current-layer="svg11" />
  <defs
     id="defs7">
    <linearGradient
       id="a">
      <stop
         offset="0"
         id="stop2" />
      <stop
         offset="1"
         stop-opacity="0"
         id="stop4" />
    </linearGradient>
  </defs>
  <path
     style="color:#000000;overflow:visible;fill:#e6e6e6;marker:none"
     d="M 11.994,0.455 10.748,2.608 8.764,1.108 8.438,3.588 6.018,2.935 6.672,5.354 4.205,5.668 5.716,7.652 3.564,8.898 l 2.152,1.245 -1.511,1.984 2.104,0.278 -4.596,7.971 3.93,-0.484 1.561,3.653 4.185,-7.257 0.605,1.052 0.605,-1.052 4.185,7.257 1.56,-3.64 3.943,0.471 -4.596,-7.97 2.092,-0.279 L 18.271,10.143 20.424,8.898 18.271,7.652 19.783,5.668 17.316,5.342 17.957,2.935 15.537,3.588 15.223,1.108 13.24,2.62 Z"
     overflow="visible"
     id="path9"
     inkscape:connector-curvature="0" />
</svg>
